Sweet-Rainbow/icons/musescore.svg

<?xml version="1.0" encoding="UTF-8" standalone="no"?>
<!-- Generator: Gravit.io -->

<svg
   xmlns:dc="http://purl.org/dc/elements/1.1/"
   xmlns:cc="http://creativecommons.org/ns#"
   xmlns:rdf="http://www.w3.org/1999/02/22-rdf-syntax-ns#"
   xmlns:svg="http://www.w3.org/2000/svg"
   xmlns="http://www.w3.org/2000/svg"
   xmlns:sodipodi="http://sodipodi.sourceforge.net/DTD/sodipodi-0.dtd"
   xmlns:inkscape="http://www.inkscape.org/namespaces/inkscape"
   style="isolation:isolate"
   viewBox="0 0 36 36"
   width="48"
   height="48"
   version="1.1"
   id="svg29"
   sodipodi:docname="musescore.svg"
   inkscape:version="0.92.4 (5da689c313, 2019-01-14)">
  <metadata
     id="metadata35">
    <rdf:RDF>
      <cc:Work
         rdf:about="">
        <dc:format>image/svg+xml</dc:format>
        <dc:type
           rdf:resource="http://purl.org/dc/dcmitype/StillImage" />
        <dc:title></dc:title>
      </cc:Work>
    </rdf:RDF>
  </metadata>
  <defs
     id="defs33" />
  <sodipodi:namedview
     pagecolor="#ffffff"
     bordercolor="#666666"
     borderopacity="1"
     objecttolerance="10"
     gridtolerance="10"
     guidetolerance="10"
     inkscape:pageopacity="0"
     inkscape:pageshadow="2"
     inkscape:window-width="640"
     inkscape:window-height="480"
     id="namedview31"
     showgrid="false"
     inkscape:zoom="29.365243"
     inkscape:cx="25.325443"
     inkscape:cy="32"
     inkscape:current-layer="svg29"
     units="px" />
  <linearGradient
     id="_lgradient_43"
     x1="-0.25509092"
     y1="-0.14997737"
     x2="1.2377336"
     y2="1.2289819"
     gradientTransform="matrix(23.006,0,0,16.012,12.497,19.988)"
     gradientUnits="userSpaceOnUse">
    <stop
       offset="2.1739130434782608%"
       stop-opacity="1"
       style="stop-color:rgb(242,79,92)"
       id="stop2" />
    <stop
       offset="49.56521739130435%"
       stop-opacity="1"
       style="stop-color:rgb(208,103,207)"
       id="stop4" />
    <stop
       offset="98.26086956521739%"
       stop-opacity="1"
       style="stop-color:rgb(49,193,233)"
       id="stop6" />
  </linearGradient>
  <linearGradient
     id="_lgradient_44"
     x1="5.1271329"
     y1="14.188096"
     x2="35.776039"
     y2="46.90049"
     gradientTransform="scale(1.0806943,0.92533108)"
     gradientUnits="userSpaceOnUse">
    <stop
       offset="2.1739130434782608%"
       stop-opacity="1"
       style="stop-color:rgb(242,79,92)"
       id="stop9" />
    <stop
       offset="49.56521739130435%"
       stop-opacity="1"
       style="stop-color:rgb(208,103,207)"
       id="stop11" />
    <stop
       offset="98.26086956521739%"
       stop-opacity="1"
       style="stop-color:rgb(49,193,233)"
       id="stop13" />
  </linearGradient>
  <linearGradient
     id="_lgradient_45"
     x1="0.12397219"
     y1="0.16741082"
     x2="0.90529388"
     y2="0.92596442"
     gradientTransform="matrix(47,0,0,47.058,0.5,0.471)"
     gradientUnits="userSpaceOnUse">
    <stop
       offset="2.1739130434782608%"
       stop-opacity="1"
       style="stop-color:rgb(242,79,92)"
       id="stop18" />
    <stop
       offset="49.56521739130435%"
       stop-opacity="1"
       style="stop-color:rgb(208,103,207)"
       id="stop20" />
    <stop
       offset="98.26086956521739%"
       stop-opacity="1"
       style="stop-color:rgb(49,193,233)"
       id="stop22" />
  </linearGradient>
  <g
     id="g845"
     transform="matrix(0.76501339,0,0,0.76501339,-0.36030612,-0.36032136)">
    <path
       id="path16"
       stroke-miterlimit="4"
       d="M 28.498,15.945 M 17,19.988 c -2.218,0 -3.56,1.376 -4.07,2.621 -0.511,1.246 -0.428,2.434 -0.428,2.434 L 12.5,24.988 V 35 c 0,0.552 0.448,1 1,1 v 0 c 0.552,0 1,-0.448 1,-1 V 24.961 l -0.002,-0.027 c 0,0 -0.028,-0.812 0.281,-1.567 0.31,-0.754 0.72,-1.379 2.221,-1.379 1.501,0 1.909,0.625 2.219,1.379 0.309,0.755 0.283,1.567 0.283,1.567 L 19.5,24.961 v 0.025 L 19.496,29 H 19.5 v 5.988 c 0,0.552 0.448,1 1,1 v 0 c 0.552,0 1,-0.448 1,-1 V 24.961 l -0.004,-0.027 c 0,0 -0.028,-0.812 0.281,-1.567 0.31,-0.754 0.722,-1.379 2.223,-1.379 1.501,0 1.909,0.625 2.219,1.379 0.309,0.755 0.283,1.567 0.283,1.567 l -0.004,0.027 V 31 l 0.004,-0.055 c 0,0 -0.083,1.188 0.428,2.434 C 27.44,34.624 28.782,36 31,36 c 2.218,0 3.559,-1.376 4.07,-2.621 0.511,-1.246 0.428,-2.434 0.428,-2.434 L 35.5,31 V 21 c 0,-0.552 -0.448,-1 -1,-1 v 0 c -0.552,0 -1,0.448 -1,1 v 10.027 l 0.002,0.028 c 0,0 0.026,0.812 -0.283,1.566 C 32.909,33.376 32.501,34 31,34 29.499,34 29.089,33.376 28.779,32.621 28.47,31.867 28.498,31.055 28.498,31.055 L 28.5,31.027 v -6.039 l -0.002,0.055 c 0,0 0.083,-1.188 -0.428,-2.434 -0.51,-1.245 -1.852,-2.621 -4.07,-2.621 -1.642,0 -2.8,0.754 -3.5,1.651 -0.7,-0.897 -1.859,-1.651 -3.5,-1.651 z"
       style="vector-effect:non-scaling-stroke;fill:url(#_lgradient_43);fill-rule:evenodd;stroke:url(#_lgradient_44);stroke-width:1;stroke-linecap:butt;stroke-linejoin:miter;stroke-miterlimit:4"
       inkscape:connector-curvature="0" />
    <path
       id="path25"
       d="m 4.773,25.433 v 0 C 4.685,24.258 3.657,23.374 2.479,23.46 v 0 c -1.177,0.085 -2.061,1.113 -1.973,2.294 v 0 c 0.439,5.914 3.102,11.454 7.455,15.497 4.352,4.032 10.074,6.278 16.01,6.278 6.235,0 12.224,-2.481 16.641,-6.888 C 45.019,36.224 47.5,30.235 47.5,24 47.5,17.765 45.019,11.776 40.612,7.359 36.195,2.952 30.206,0.471 23.971,0.471 v 0 c -1.181,0 -2.139,0.958 -2.139,2.139 v 0 c 0,1.181 0.958,2.139 2.139,2.139 v 0 c 5.101,0 10,2.032 13.615,5.636 3.604,3.615 5.636,8.513 5.636,13.615 0,5.102 -2.032,10 -5.636,13.615 -3.615,3.604 -8.514,5.636 -13.615,5.636 -4.856,0 -9.54,-1.829 -13.101,-5.134 C 7.308,34.813 5.137,30.278 4.773,25.433 Z M 15.019,6.952 v 0 c 1.045,-0.549 1.448,-1.843 0.899,-2.888 v 0 C 15.369,3.02 14.075,2.617 13.03,3.166 v 0 C 8.581,5.508 4.987,9.219 2.795,13.743 v 0 c -0.52,1.063 -0.079,2.345 0.984,2.861 v 0 c 1.062,0.517 2.347,0.074 2.866,-0.989 v 0 c 1.797,-3.711 4.727,-6.738 8.374,-8.663 z"
       style="fill:url(#_lgradient_45);fill-rule:evenodd"
       inkscape:connector-curvature="0" />
    <path
       id="path27"
       d="m 29.5,17.445 c 0,-0.828 0.672,-1.5 1.5,-1.5 0.828,0 1.5,0.672 1.5,1.5 0,0.828 -0.672,1.5 -1.5,1.5 -0.828,0 -1.5,-0.672 -1.5,-1.5 z M 29,15.42 v 0 c -0.011,0.828 -0.692,1.493 -1.52,1.485 v 0 C 26.652,16.897 25.989,16.218 26,15.39 v 0 c 0.02,-1.32 0.55,-2.58 1.48,-3.5 0.94,-0.93 2.2,-1.45 3.52,-1.45 1.32,0 2.59,0.53 3.53,1.47 0.94,0.93 1.47,2.2 1.47,3.52 v 0 c 0,0.828 -0.672,1.502 -1.5,1.505 v 0 C 33.672,16.938 33,16.268 33,15.44 v 0 C 33,14.91 32.79,14.4 32.41,14.03 32.04,13.66 31.53,13.44 31,13.44 c -0.53,0 -1.03,0.21 -1.41,0.58 -0.37,0.37 -0.58,0.88 -0.59,1.4 z"
       inkscape:connector-curvature="0"
       style="fill:#d365c4;fill-rule:evenodd" />
  </g>
</svg>

<?xml version="1.0" encoding="UTF-8" standalone="no"?><!-- Generator: Gravit.io --><svg xmlns="http://www.w3.org/2000/svg" xmlns:xlink="http://www.w3.org/1999/xlink" style="isolation:isolate" viewBox="0 0 48 48" width="48pt" height="48pt"><linearGradient id="_lgradient_43" x1="-0.25509091941657946" y1="-0.14997737556561086" x2="1.237733637838482" y2="1.228981900452489" gradientTransform="matrix(23.006,0,0,16.012,12.497,19.988)" gradientUnits="userSpaceOnUse"><stop offset="2.1739130434782608%" stop-opacity="1" style="stop-color:rgb(242,79,92)"/><stop offset="49.56521739130435%" stop-opacity="1" style="stop-color:rgb(208,103,207)"/><stop offset="98.26086956521739%" stop-opacity="1" style="stop-color:rgb(49,193,233)"/></linearGradient><linearGradient id="_lgradient_44" x1="-0.26893249098664856" y1="-0.13701357466063335" x2="1.1107992967793932" y2="1.3356108597285072"><stop offset="2.1739130434782608%" stop-opacity="1" style="stop-color:rgb(242,79,92)"/><stop offset="49.56521739130435%" stop-opacity="1" style="stop-color:rgb(208,103,207)"/><stop offset="98.26086956521739%" stop-opacity="1" style="stop-color:rgb(49,193,233)"/></linearGradient><path d=" M 28.498 15.945 M 17 19.988 C 14.782 19.988 13.44 21.364 12.93 22.609 C 12.419 23.855 12.502 25.043 12.502 25.043 L 12.5 24.988 L 12.5 35 C 12.5 35.552 12.948 36 13.5 36 L 13.5 36 C 14.052 36 14.5 35.552 14.5 35 L 14.5 24.961 L 14.498 24.934 C 14.498 24.934 14.47 24.122 14.779 23.367 C 15.089 22.613 15.499 21.988 17 21.988 C 18.501 21.988 18.909 22.613 19.219 23.367 C 19.528 24.122 19.502 24.934 19.502 24.934 L 19.5 24.961 L 19.5 24.986 L 19.496 29 L 19.5 29 L 19.5 34.988 C 19.5 35.54 19.948 35.988 20.5 35.988 L 20.5 35.988 C 21.052 35.988 21.5 35.54 21.5 34.988 L 21.5 24.961 L 21.496 24.934 C 21.496 24.934 21.468 24.122 21.777 23.367 C 22.087 22.613 22.499 21.988 24 21.988 C 25.501 21.988 25.909 22.613 26.219 23.367 C 26.528 24.122 26.502 24.934 26.502 24.934 L 26.498 24.961 L 26.498 31 L 26.502 30.945 C 26.502 30.945 26.419 32.133 26.93 33.379 C 27.44 34.624 28.782 36 31 36 C 33.218 36 34.559 34.624 35.07 33.379 C 35.581 32.133 35.498 30.945 35.498 30.945 L 35.5 31 L 35.5 21 C 35.5 20.448 35.052 20 34.5 20 L 34.5 20 C 33.948 20 33.5 20.448 33.5 21 L 33.5 31.027 L 33.502 31.055 C 33.502 31.055 33.528 31.867 33.219 32.621 C 32.909 33.376 32.501 34 31 34 C 29.499 34 29.089 33.376 28.779 32.621 C 28.47 31.867 28.498 31.055 28.498 31.055 L 28.5 31.027 L 28.5 24.988 L 28.498 25.043 C 28.498 25.043 28.581 23.855 28.07 22.609 C 27.56 21.364 26.218 19.988 24 19.988 C 22.358 19.988 21.2 20.742 20.5 21.639 C 19.8 20.742 18.641 19.988 17 19.988 Z " fill-rule="evenodd" fill="url(#_lgradient_43)" vector-effect="non-scaling-stroke" stroke-width="1" stroke="url(#_lgradient_44)" stroke-linejoin="miter" stroke-linecap="butt" stroke-miterlimit="4"/><linearGradient id="_lgradient_45" x1="0.12397219323214168" y1="0.16741082474102914" x2="0.9052938577436629" y2="0.9259644179045445" gradientTransform="matrix(47,0,0,47.058,0.5,0.471)" gradientUnits="userSpaceOnUse"><stop offset="2.1739130434782608%" stop-opacity="1" style="stop-color:rgb(242,79,92)"/><stop offset="49.56521739130435%" stop-opacity="1" style="stop-color:rgb(208,103,207)"/><stop offset="98.26086956521739%" stop-opacity="1" style="stop-color:rgb(49,193,233)"/></linearGradient><path d=" M 4.773 25.433 L 4.773 25.433 C 4.685 24.258 3.657 23.374 2.479 23.46 L 2.479 23.46 C 1.302 23.545 0.418 24.573 0.506 25.754 L 0.506 25.754 C 0.945 31.668 3.608 37.208 7.961 41.251 C 12.313 45.283 18.035 47.529 23.971 47.529 C 30.206 47.529 36.195 45.048 40.612 40.641 C 45.019 36.224 47.5 30.235 47.5 24 C 47.5 17.765 45.019 11.776 40.612 7.359 C 36.195 2.952 30.206 0.471 23.971 0.471 L 23.971 0.471 C 22.79 0.471 21.832 1.429 21.832 2.61 L 21.832 2.61 C 21.832 3.791 22.79 4.749 23.971 4.749 L 23.971 4.749 C 29.072 4.749 33.971 6.781 37.586 10.385 C 41.19 14 43.222 18.898 43.222 24 C 43.222 29.102 41.19 34 37.586 37.615 C 33.971 41.219 29.072 43.251 23.971 43.251 C 19.115 43.251 14.431 41.422 10.87 38.117 C 7.308 34.813 5.137 30.278 4.773 25.433 Z  M 15.019 6.952 L 15.019 6.952 C 16.064 6.403 16.467 5.109 15.918 4.064 L 15.918 4.064 C 15.369 3.02 14.075 2.617 13.03 3.166 L 13.03 3.166 C 8.581 5.508 4.987 9.219 2.795 13.743 L 2.795 13.743 C 2.275 14.806 2.716 16.088 3.779 16.604 L 3.779 16.604 C 4.841 17.121 6.126 16.678 6.645 15.615 L 6.645 15.615 C 8.442 11.904 11.372 8.877 15.019 6.952 Z " fill-rule="evenodd" fill="url(#_lgradient_45)"/><path d=" M 29.5 17.445 C 29.5 16.617 30.172 15.945 31 15.945 C 31.828 15.945 32.5 16.617 32.5 17.445 C 32.5 18.273 31.828 18.945 31 18.945 C 30.172 18.945 29.5 18.273 29.5 17.445 Z  M 29 15.42 L 29 15.42 C 28.989 16.248 28.308 16.913 27.48 16.905 L 27.48 16.905 C 26.652 16.897 25.989 16.218 26 15.39 L 26 15.39 C 26.02 14.07 26.55 12.81 27.48 11.89 C 28.42 10.96 29.68 10.44 31 10.44 C 32.32 10.44 33.59 10.97 34.53 11.91 C 35.47 12.84 36 14.11 36 15.43 L 36 15.43 C 36 16.258 35.328 16.932 34.5 16.935 L 34.5 16.935 C 33.672 16.938 33 16.268 33 15.44 L 33 15.44 C 33 14.91 32.79 14.4 32.41 14.03 C 32.04 13.66 31.53 13.44 31 13.44 C 30.47 13.44 29.97 13.65 29.59 14.02 C 29.22 14.39 29.01 14.9 29 15.42 Z " fill-rule="evenodd" fill="rgb(211,101,196)"/></svg>
